X: 1
T:Gossip Joan
M:4/4
L:1/4
B:Oswald's Caledonian Pocket Companion Book XI
S:pete stewart  2005-6-16
K:G
d \
| gGBc | d3 c/B/ | cADc | cBzd | eeed/c/ | d/c/d/e/d c/B/ |
| cccB/A/ | B/A/B/c/ Bg | dgdg | a/g/f/e/dc | B2A2 | G3 |]
